X: 1
T: Bessie Brown
M: 6/8
L: 1/8
R: jig
K: Dmaj
~f3 def|gfg efg|afe def|ged cde|
~f3 def|gfg efg|afd Ace|1edc d2e:|2edc dcB||
Adf fed|Beg gfe|cea Beg|fed cde|
Adf fed|Beg gfe|cea gec|1edc dcB:|2edc d2e||
fef Adf|gfg ecA|gfg efg|gaa fdA|
fef Adf|gfg ecA|Aca gec|1edc d2e:|2edc dcB||
Add dcB|c3 cBA|Aee edc|dcd f2d|
Add dcB|c3 cde|a3 gec|1edc dcB:|2edc d3||
